urcenter/urcenter/img/advantages/icon-2.svg

<svg width="75" height="58" viewBox="0 0 75 58" fill="none" xmlns="http://www.w3.org/2000/svg">
<ellipse opacity="0.7" cx="28.4274" cy="29" rx="28.4274" ry="29" fill="url(#paint0_linear)"/>
<path d="M50.5162 28.9999C50.5162 41.4899 40.5987 51.5637 28.4275 51.5637C16.2563 51.5637 6.33875 41.4899 6.33875 28.9999C6.33875 16.5099 16.2563 6.43604 28.4275 6.43604C40.5987 6.43604 50.5162 16.5099 50.5162 28.9999Z" stroke="#CDBBEF" stroke-opacity="0.3" stroke-width="3"/>
<ellipse opacity="0.7" cx="46.5726" cy="29" rx="28.4274" ry="29" fill="url(#paint1_linear)"/>
<path d="M69.2662 28.9999C69.2662 41.4899 59.3487 51.5637 47.1775 51.5637C35.0063 51.5637 25.0887 41.4899 25.0887 28.9999C25.0887 16.5099 35.0063 6.43604 47.1775 6.43604C59.3487 6.43604 69.2662 16.5099 69.2662 28.9999Z" stroke="#CDBBEF" stroke-width="3"/>
<path d="M46.0645 40.5406V37.5789C43.0838 37.263 40.4709 36.2857 38.2258 34.6469L40.8387 30.7078C42.6967 32.0307 44.4967 32.8402 46.2387 33.1364V29.5823C43.8 29.0098 42.0096 28.2397 40.8677 27.2722C39.7451 26.3047 39.1838 24.9226 39.1838 23.1258C39.1838 21.3488 39.7935 19.9075 41.0129 18.8018C42.2322 17.6763 43.9354 17.0346 46.1225 16.8766V15.1885H49.1419V16.9655C51.3677 17.2222 53.4096 17.9922 55.2677 19.2756L52.8871 23.2443C51.7451 22.415 50.4484 21.8227 48.9967 21.4673V24.9029C51.3967 25.4755 53.1484 26.2554 54.2516 27.2426C55.3742 28.2298 55.9355 29.6218 55.9355 31.4186C55.9355 33.1956 55.3161 34.6271 54.0774 35.7131C52.858 36.799 51.1935 37.4407 49.0838 37.6382V40.5406H46.0645ZM48.9677 33.3141C50.2645 33.1759 50.9129 32.6526 50.9129 31.7444C50.9129 31.3298 50.7677 31.004 50.4774 30.767C50.2064 30.5103 49.7032 30.2734 48.9677 30.0562V33.3141ZM46.2677 24.3994V21.2007C44.9516 21.3192 44.2935 21.8326 44.2935 22.7408C44.2935 23.1357 44.429 23.4615 44.7 23.7182C44.9903 23.9551 45.5129 24.1822 46.2677 24.3994Z" fill="url(#paint2_linear)"/>
<defs>
<linearGradient id="paint0_linear" x1="12.2628" y1="0" x2="56.8549" y2="0" gradientUnits="userSpaceOnUse">
<stop stop-color="#E1D8FF"/>
<stop offset="1" stop-color="#F4ECFF"/>
</linearGradient>
<linearGradient id="paint1_linear" x1="30.408" y1="0" x2="75" y2="0" gradientUnits="userSpaceOnUse">
<stop stop-color="#E1D8FF"/>
<stop offset="1" stop-color="#F4ECFF"/>
</linearGradient>
<linearGradient id="paint2_linear" x1="47.0806" y1="15.1885" x2="47.0806" y2="40.5406" gradientUnits="userSpaceOnUse">
<stop stop-color="#4614E8"/>
<stop offset="1" stop-color="#BCA7FF"/>
</linearGradient>
</defs>
</svg>

<svg width="75" height="58" fill="none" xmlns="http://www.w3.org/2000/svg"><ellipse opacity=".7" cx="28.427" cy="29" rx="28.427" ry="29" fill="url(#paint0_linear)"/><path d="M50.516 29c0 12.49-9.917 22.564-22.088 22.564-12.172 0-22.09-10.074-22.09-22.564s9.918-22.564 22.09-22.564c12.17 0 22.088 10.074 22.088 22.564z" stroke="#CDBBEF" stroke-opacity=".3" stroke-width="3"/><ellipse opacity=".7" cx="46.573" cy="29" rx="28.427" ry="29" fill="url(#paint1_linear)"/><path d="M69.266 29c0 12.49-9.917 22.564-22.089 22.564C35.008 51.564 25.09 41.49 25.09 29S35.006 6.436 47.178 6.436c12.17 0 22.088 10.074 22.088 22.564z" stroke="#CDBBEF" stroke-width="3"/><path d="M46.065 40.54v-2.96c-2.981-.316-5.594-1.293-7.84-2.932l2.614-3.94c1.858 1.324 3.658 2.133 5.4 2.43v-3.555c-2.439-.572-4.23-1.342-5.371-2.31-1.123-.967-1.684-2.35-1.684-4.146 0-1.777.61-3.219 1.829-4.324 1.22-1.126 2.922-1.767 5.11-1.925V15.19h3.019v1.776a13.307 13.307 0 016.126 2.31l-2.38 3.97c-1.143-.83-2.44-1.422-3.891-1.778v3.436c2.4.573 4.151 1.352 5.255 2.34 1.122.987 1.683 2.379 1.683 4.176 0 1.777-.619 3.208-1.858 4.294-1.219 1.086-2.883 1.728-4.993 1.925v2.903h-3.02zm2.903-7.226c1.296-.138 1.945-.661 1.945-1.57 0-.414-.145-.74-.436-.977-.27-.257-.774-.494-1.51-.71v3.257zm-2.7-8.915v-3.198c-1.316.118-1.974.632-1.974 1.54 0 .395.135.72.406.977.29.237.813.464 1.568.681z" fill="url(#paint2_linear)"/><defs><linearGradient id="paint0_linear" x1="12.263" y1="0" x2="56.855" y2="0" gradientUnits="userSpaceOnUse"><stop stop-color="#E1D8FF"/><stop offset="1" stop-color="#F4ECFF"/></linearGradient><linearGradient id="paint1_linear" x1="30.408" y1="0" x2="75" y2="0" gradientUnits="userSpaceOnUse"><stop stop-color="#E1D8FF"/><stop offset="1" stop-color="#F4ECFF"/></linearGradient><linearGradient id="paint2_linear" x1="47.081" y1="15.188" x2="47.081" y2="40.541" gradientUnits="userSpaceOnUse"><stop stop-color="#4614E8"/><stop offset="1" stop-color="#BCA7FF"/></linearGradient></defs></svg>
